resources/svg/regular/left-indent.svg

<svg xmlns="http://www.w3.org/2000/svg" fill="currentColor" stroke="none" viewBox="0 0 24 24"><path d="M4 7h10v2H4zm0-4h16v2H4zm0 8h10v2H4zm0 4h10v2H4zm0 4h16v2H4zm16-3V8l-4 4z"/></svg>

<svg xmlns="http://www.w3.org/2000/svg" fill="currentColor" stroke="none" viewBox="0 0 24 24"><path d="M4 7H14V9H4zM4 3H20V5H4zM4 11H14V13H4zM4 15H14V17H4zM4 19H20V21H4zM20 16L20 8 16 12z"/></svg>
